images/icons/team-1-instagram.svg

<svg width="20" height="20" viewBox="0 0 20 20" fill="none" xmlns="http://www.w3.org/2000/svg">
<rect width="20" height="20" fill="#E5E5E5"/>
<g clip-path="url(#clip0_1_293)">
<rect width="1600" height="2931" transform="translate(-1020 -2221)" fill="white"/>
<rect x="-1159" y="-552" width="1600" height="708" fill="#F5F4FA"/>
<g filter="url(#filter0_ddd_1_293)">
<path d="M-44 -366H226V58C226 60.2091 224.209 62 222 62H-40C-42.2091 62 -44 60.2091 -44 58V-366Z" fill="white"/>
</g>
<path d="M32 9.99994C32 16.0751 29.5376 21.5751 25.5564 25.5563C21.5751 29.5375 16.0751 31.9999 10 31.9999C3.92487 31.9999 -1.57513 29.5375 -5.55635 25.5563C-9.53757 21.5751 -12 16.0751 -12 9.99994C-12 3.92481 -9.53757 -1.57519 -5.55635 -5.55641C-1.57513 -9.53763 3.92487 -12.0001 10 -12.0001C16.0751 -12.0001 21.5751 -9.53763 25.5564 -5.55641C29.5376 -1.57519 32 3.92481 32 9.99994Z" fill="white"/>
<g clip-path="url(#clip1_1_293)">
<path d="M19.9804 5.88005C19.9336 4.81738 19.7617 4.0868 19.5156 3.45374C19.2616 2.78176 18.8709 2.18014 18.359 1.68002C17.8589 1.1721 17.2533 0.777435 16.5891 0.527447C15.9524 0.281274 15.2256 0.109427 14.163 0.0625732C13.0924 0.0117516 12.7525 0 10.0371 0C7.32173 0 6.98185 0.0117516 5.91521 0.0586052C4.85253 0.105459 4.12195 0.277459 3.48904 0.523479C2.81692 0.777435 2.2153 1.16814 1.71517 1.68002C1.20726 2.18014 0.812743 2.78573 0.562603 3.44992C0.31643 4.0868 0.144583 4.81341 0.0977294 5.87609C0.0469078 6.9467 0.0351562 7.28658 0.0351562 10.002C0.0351562 12.7173 0.0469078 13.0572 0.0937614 14.1239C0.140615 15.1865 0.312615 15.9171 0.558787 16.5502C0.812743 17.2221 1.20726 17.8238 1.71517 18.3239C2.2153 18.8318 2.82088 19.2265 3.48508 19.4765C4.12195 19.7226 4.84856 19.8945 5.91139 19.9413C6.97788 19.9883 7.31791 19.9999 10.0333 19.9999C12.7487 19.9999 13.0885 19.9883 14.1552 19.9413C15.2179 19.8945 15.9484 19.7226 16.5813 19.4765C17.9254 18.9568 18.9881 17.8941 19.5078 16.5502C19.7538 15.9133 19.9258 15.1865 19.9727 14.1239C20.0195 13.0572 20.0313 12.7173 20.0313 10.002C20.0313 7.28658 20.0273 6.9467 19.9804 5.88005ZM18.1794 14.0457C18.1364 15.0225 17.9723 15.5499 17.8356 15.9015C17.4995 16.7728 16.808 17.4643 15.9367 17.8004C15.5851 17.9372 15.0538 18.1012 14.0809 18.1441C13.026 18.1911 12.7096 18.2027 10.0411 18.2027C7.37255 18.2027 7.05221 18.1911 6.00113 18.1441C5.02438 18.1012 4.49693 17.9372 4.1453 17.8004C3.71171 17.6402 3.31704 17.3862 2.9967 17.0541C2.6646 16.7298 2.41065 16.3391 2.2504 15.9055C2.11365 15.5539 1.94959 15.0225 1.90671 14.0497C1.8597 12.9948 1.8481 12.6783 1.8481 10.0097C1.8481 7.34122 1.8597 7.02087 1.90671 5.96995C1.94959 4.99319 2.11365 4.46575 2.2504 4.11412C2.41065 3.68038 2.6646 3.28586 3.00067 2.96536C3.32483 2.63327 3.71553 2.37931 4.14927 2.21921C4.5009 2.08247 5.03231 1.9184 6.0051 1.87537C7.05999 1.82851 7.37652 1.81676 10.0449 1.81676C12.7174 1.81676 13.0337 1.82851 14.0848 1.87537C15.0616 1.9184 15.589 2.08247 15.9407 2.21921C16.3742 2.37931 16.7689 2.63327 17.0893 2.96536C17.4213 3.28967 17.6753 3.68038 17.8356 4.11412C17.9723 4.46575 18.1364 4.99701 18.1794 5.96995C18.2263 7.02484 18.238 7.34122 18.238 10.0097C18.238 12.6783 18.2263 12.9908 18.1794 14.0457Z" fill="#AFB1B8"/>
<path d="M10.0371 4.8642C7.20068 4.8642 4.89935 7.16537 4.89935 10.0019C4.89935 12.8385 7.20068 15.1396 10.0371 15.1396C12.8736 15.1396 15.1748 12.8385 15.1748 10.0019C15.1748 7.16537 12.8736 4.8642 10.0371 4.8642ZM10.0371 13.3346C8.19696 13.3346 6.70436 11.8422 6.70436 10.0019C6.70436 8.16165 8.19696 6.66921 10.0371 6.66921C11.8773 6.66921 13.3698 8.16165 13.3698 10.0019C13.3698 11.8422 11.8773 13.3346 10.0371 13.3346Z" fill="#AFB1B8"/>
<path d="M16.5775 4.6611C16.5775 5.32346 16.0405 5.86052 15.378 5.86052C14.7156 5.86052 14.1785 5.32346 14.1785 4.6611C14.1785 3.99858 14.7156 3.46167 15.378 3.46167C16.0405 3.46167 16.5775 3.99858 16.5775 4.6611Z" fill="#AFB1B8"/>
</g>
</g>
<defs>
<filter id="filter0_ddd_1_293" x="-47" y="-368" width="276" height="434" filterUnits="userSpaceOnUse" color-interpolation-filters="sRGB">
<feFlood flood-opacity="0" result="BackgroundImageFix"/>
<feColorMatrix in="SourceAlpha" type="matrix" values="0 0 0 0 0 0 0 0 0 0 0 0 0 0 0 0 0 0 127 0" result="hardAlpha"/>
<feOffset dy="2"/>
<feGaussianBlur stdDeviation="0.5"/>
<feColorMatrix type="matrix" values="0 0 0 0 0 0 0 0 0 0 0 0 0 0 0 0 0 0 0.2 0"/>
<feBlend mode="normal" in2="BackgroundImageFix" result="effect1_dropShadow_1_293"/>
<feColorMatrix in="SourceAlpha" type="matrix" values="0 0 0 0 0 0 0 0 0 0 0 0 0 0 0 0 0 0 127 0" result="hardAlpha"/>
<feOffset dy="1"/>
<feGaussianBlur stdDeviation="0.5"/>
<feColorMatrix type="matrix" values="0 0 0 0 0 0 0 0 0 0 0 0 0 0 0 0 0 0 0.14 0"/>
<feBlend mode="normal" in2="effect1_dropShadow_1_293" result="effect2_dropShadow_1_293"/>
<feColorMatrix in="SourceAlpha" type="matrix" values="0 0 0 0 0 0 0 0 0 0 0 0 0 0 0 0 0 0 127 0" result="hardAlpha"/>
<feOffset dy="1"/>
<feGaussianBlur stdDeviation="1.5"/>
<feColorMatrix type="matrix" values="0 0 0 0 0 0 0 0 0 0 0 0 0 0 0 0 0 0 0.12 0"/>
<feBlend mode="normal" in2="effect2_dropShadow_1_293" result="effect3_dropShadow_1_293"/>
<feBlend mode="normal" in="SourceGraphic" in2="effect3_dropShadow_1_293" result="shape"/>
</filter>
<clipPath id="clip0_1_293">
<rect width="1600" height="2931" fill="white" transform="translate(-1020 -2221)"/>
</clipPath>
<clipPath id="clip1_1_293">
<rect width="20" height="20" fill="white"/>
</clipPath>
</defs>
</svg>

<svg width="20" height="20" fill="none" xmlns="http://www.w3.org/2000/svg"><path fill="#E5E5E5" d="M0 0h20v20H0z"/><g clip-path="url(#a)"><path fill="#fff" d="M-559-2151h1600V780H-559z"/><path fill="#F5F4FA" d="M-559-552h1600v708H-559z"/><g filter="url(#b)"><path d="M-44-366h270V58a4 4 0 0 1-4 4H-40a4 4 0 0 1-4-4v-424Z" fill="#fff"/></g><path d="M32 10a21.93 21.93 0 0 1-6.444 15.556A21.931 21.931 0 0 1 10 32a21.931 21.931 0 0 1-15.556-6.444A21.931 21.931 0 0 1-12 10 21.931 21.931 0 0 1-5.556-5.556 21.931 21.931 0 0 1 10-12a21.931 21.931 0 0 1 15.556 6.444A21.93 21.93 0 0 1 32 10Z" fill="#fff"/><g clip-path="url(#c)" fill="#AFB1B8"><path d="M19.98 5.88c-.046-1.063-.218-1.793-.464-2.426a4.88 4.88 0 0 0-1.157-1.774 4.922 4.922 0 0 0-1.77-1.153C15.952.281 15.226.11 14.163.063 13.093.012 12.753 0 10.037 0 7.322 0 6.982.012 5.915.059 4.853.105 4.122.277 3.49.523A4.88 4.88 0 0 0 1.715 1.68 4.924 4.924 0 0 0 .563 3.45C.316 4.087.145 4.813.098 5.876c-.051 1.07-.063 1.41-.063 4.126 0 2.715.012 3.055.059 4.122.047 1.063.219 1.793.465 2.426a4.932 4.932 0 0 0 1.156 1.774 4.92 4.92 0 0 0 1.77 1.152c.637.247 1.364.419 2.426.465 1.067.047 1.407.059 4.122.059 2.716 0 3.056-.012 4.122-.059 1.063-.046 1.793-.218 2.426-.464a5.116 5.116 0 0 0 2.927-2.927c.246-.637.418-1.364.465-2.426.047-1.067.058-1.407.058-4.122s-.004-3.055-.05-4.122Zm-1.8 8.166c-.044.977-.208 1.504-.344 1.856a3.318 3.318 0 0 1-1.9 1.898c-.35.137-.882.301-1.855.344-1.055.047-1.371.059-4.04.059-2.668 0-2.989-.012-4.04-.059-.977-.043-1.504-.207-1.856-.344a3.077 3.077 0 0 1-1.148-.746 3.11 3.11 0 0 1-.747-1.148c-.136-.352-.3-.883-.343-1.856-.047-1.055-.059-1.372-.059-4.04 0-2.669.012-2.99.059-4.04.043-.977.207-1.504.343-1.856A3.04 3.04 0 0 1 3 2.965a3.105 3.105 0 0 1 1.15-.746c.35-.137.882-.3 1.855-.344 1.055-.046 1.372-.058 4.04-.058 2.672 0 2.989.012 4.04.058.977.043 1.504.207 1.856.344.433.16.828.414 1.148.746.332.325.586.715.747 1.15.136.35.3.882.343 1.855.047 1.055.059 1.371.059 4.04 0 2.668-.012 2.98-.059 4.036Z"/><path d="M10.037 4.864A5.139 5.139 0 0 0 4.9 10.002a5.139 5.139 0 0 0 10.276 0 5.139 5.139 0 0 0-5.138-5.138Zm0 8.47a3.333 3.333 0 1 1 .001-6.666 3.333 3.333 0 0 1 0 6.667Zm6.541-8.673a1.2 1.2 0 1 1-2.4 0 1.2 1.2 0 0 1 2.4 0Z"/></g></g><defs><clipPath id="a"><path fill="#fff" transform="translate(-559 -2151)" d="M0 0h1600v2931H0z"/></clipPath><clipPath id="c"><path fill="#fff" d="M0 0h20v20H0z"/></clipPath><filter id="b" x="-47" y="-368" width="276" height="434" filterUnits="userSpaceOnUse" color-interpolation-filters="sRGB"><feFlood flood-opacity="0" result="BackgroundImageFix"/><feColorMatrix in="SourceAlpha" values="0 0 0 0 0 0 0 0 0 0 0 0 0 0 0 0 0 0 127 0" result="hardAlpha"/><feOffset dy="2"/><feGaussianBlur stdDeviation=".5"/><feColorMatrix values="0 0 0 0 0 0 0 0 0 0 0 0 0 0 0 0 0 0 0.2 0"/><feBlend in2="BackgroundImageFix" result="effect1_dropShadow_1_293"/><feColorMatrix in="SourceAlpha" values="0 0 0 0 0 0 0 0 0 0 0 0 0 0 0 0 0 0 127 0" result="hardAlpha"/><feOffset dy="1"/><feGaussianBlur stdDeviation=".5"/><feColorMatrix values="0 0 0 0 0 0 0 0 0 0 0 0 0 0 0 0 0 0 0.14 0"/><feBlend in2="effect1_dropShadow_1_293" result="effect2_dropShadow_1_293"/><feColorMatrix in="SourceAlpha" values="0 0 0 0 0 0 0 0 0 0 0 0 0 0 0 0 0 0 127 0" result="hardAlpha"/><feOffset dy="1"/><feGaussianBlur stdDeviation="1.5"/><feColorMatrix values="0 0 0 0 0 0 0 0 0 0 0 0 0 0 0 0 0 0 0.12 0"/><feBlend in2="effect2_dropShadow_1_293" result="effect3_dropShadow_1_293"/><feBlend in="SourceGraphic" in2="effect3_dropShadow_1_293" result="shape"/></filter></defs></svg>
